Newaita-dark/mimetypes/scalable/text-x-changelog.svg

<?xml version="1.0" encoding="UTF-8"?>
<svg xmlns="http://www.w3.org/2000/svg" xmlns:xlink="http://www.w3.org/1999/xlink" width="512pt" height="512pt" viewBox="0 0 512 512" version="1.1">
<defs>
<linearGradient id="linear0" gradientUnits="userSpaceOnUse" x1="254" y1="233.5" x2="254" y2="254.666672" gradientTransform="matrix(1.000095,0,0,1.000095,10.584324,215.020531)">
<stop offset="0" style="stop-color:rgb(0%,0%,0%);stop-opacity:0.27451;"/>
<stop offset="1" style="stop-color:rgb(0%,0%,0%);stop-opacity:0;"/>
</linearGradient>
<radialGradient id="radial0" gradientUnits="userSpaceOnUse" cx="450.908936" cy="189.579361" fx="450.908936" fy="189.579361" r="21.166656" gradientTransform="matrix(0.00000278673,-1.250119,-2.250215,-0.00000162462,791.753107,1017.525291)">
<stop offset="0" style="stop-color:rgb(0%,0%,0%);stop-opacity:0.313725;"/>
<stop offset="0.222222" style="stop-color:rgb(0%,0%,0%);stop-opacity:0.27451;"/>
<stop offset="1" style="stop-color:rgb(0%,0%,0%);stop-opacity:0;"/>
</radialGradient>
<radialGradient id="radial1" gradientUnits="userSpaceOnUse" cx="450.908936" cy="189.579361" fx="450.908936" fy="189.579361" r="21.166656" gradientTransform="matrix(-0.00000278673,1.250119,2.250215,0.00000162462,-294.288782,-120.439692)">
<stop offset="0" style="stop-color:rgb(0%,0%,0%);stop-opacity:0.313725;"/>
<stop offset="0.222222" style="stop-color:rgb(0%,0%,0%);stop-opacity:0.27451;"/>
<stop offset="1" style="stop-color:rgb(0%,0%,0%);stop-opacity:0;"/>
</radialGradient>
<radialGradient id="radial2" gradientUnits="userSpaceOnUse" cx="450.908936" cy="189.579361" fx="450.908936" fy="189.579361" r="21.166656" gradientTransform="matrix(-0.00000278673,-1.250119,2.250215,-0.00000162462,-294.288782,1017.525291)">
<stop offset="0" style="stop-color:rgb(0%,0%,0%);stop-opacity:0.313725;"/>
<stop offset="0.222222" style="stop-color:rgb(0%,0%,0%);stop-opacity:0.27451;"/>
<stop offset="1" style="stop-color:rgb(0%,0%,0%);stop-opacity:0;"/>
</radialGradient>
<radialGradient id="radial3" gradientUnits="userSpaceOnUse" cx="450.908936" cy="189.579361" fx="450.908936" fy="189.579361" r="21.166656" gradientTransform="matrix(0.00000278673,1.250119,-2.250215,0.00000162462,791.753076,-120.4397)">
<stop offset="0" style="stop-color:rgb(0%,0%,0%);stop-opacity:0.313725;"/>
<stop offset="0.222222" style="stop-color:rgb(0%,0%,0%);stop-opacity:0.27451;"/>
<stop offset="1" style="stop-color:rgb(0%,0%,0%);stop-opacity:0;"/>
</radialGradient>
<linearGradient id="linear1" gradientUnits="userSpaceOnUse" x1="940" y1="1695.118164" x2="940" y2="175.118118" gradientTransform="matrix(0.264609,0,0,0.264609,0,0)">
<stop offset="0" style="stop-color:rgb(50.196078%,79.607843%,76.862745%);stop-opacity:1;"/>
<stop offset="1" style="stop-color:rgb(69.803922%,87.45098%,85.882353%);stop-opacity:1;"/>
</linearGradient>
<linearGradient id="linear2" gradientUnits="userSpaceOnUse" x1="249.189423" y1="233.5" x2="249.189423" y2="254.666687" gradientTransform="matrix(0.478307,0,0,1.750165,240.678774,-264.420634)">
<stop offset="0" style="stop-color:rgb(0%,0%,0%);stop-opacity:0.27451;"/>
<stop offset="1" style="stop-color:rgb(0%,0%,0%);stop-opacity:0;"/>
</linearGradient>
<linearGradient id="linear3" gradientUnits="userSpaceOnUse" x1="338.666656" y1="233.5" x2="338.666656" y2="-168.666672" gradientTransform="matrix(1.000095,0,0,1.000095,0,215.020531)">
<stop offset="0" style="stop-color:rgb(14.901961%,65.098039%,60.392157%);stop-opacity:1;"/>
<stop offset="1" style="stop-color:rgb(30.196078%,71.372549%,67.45098%);stop-opacity:1;"/>
</linearGradient>
<linearGradient id="linear4" gradientUnits="userSpaceOnUse" x1="285.75" y1="233.5" x2="285.75" y2="-168.666656" gradientTransform="matrix(1,0,0,1,-21.166639,0)">
<stop offset="0" style="stop-color:rgb(14.901961%,65.098039%,60.392157%);stop-opacity:1;"/>
<stop offset="1" style="stop-color:rgb(30.196078%,71.372549%,67.45098%);stop-opacity:1;"/>
</linearGradient>
</defs>
<g id="surface1">
<path style=" stroke:none;fill-rule:nonzero;fill:url(#linear0);" d="M 127.011719 448.542969 L 370.453125 448.542969 L 370.453125 469.710938 L 127.011719 469.710938 Z M 127.011719 448.542969 "/>
<path style=" stroke:none;fill-rule:nonzero;fill:url(#radial0);" d="M 370.453125 448.542969 L 412.789062 448.542969 L 412.789062 427.375 L 370.453125 427.375 Z M 370.453125 448.542969 "/>
<path style=" stroke:none;fill-rule:nonzero;fill:url(#radial1);" d="M 127.011719 448.542969 L 84.675781 448.542969 L 84.675781 469.710938 L 127.011719 469.710938 Z M 127.011719 448.542969 "/>
<path style=" stroke:none;fill-rule:nonzero;fill:url(#radial2);" d="M 127.011719 448.542969 L 84.675781 448.542969 L 84.675781 427.375 L 127.011719 427.375 Z M 127.011719 448.542969 "/>
<path style=" stroke:none;fill-rule:nonzero;fill:url(#radial3);" d="M 370.453125 448.542969 L 412.789062 448.542969 L 412.789062 469.710938 L 370.453125 469.710938 Z M 370.453125 448.542969 "/>
<path style=" stroke:none;fill-rule:nonzero;fill:url(#linear1);" d="M 296.671875 46.335938 L 105.84375 46.335938 C 94.117188 46.335938 84.675781 55.777344 84.675781 67.507812 L 84.675781 427.375 C 84.675781 439.101562 94.117188 448.542969 105.84375 448.542969 L 391.621094 448.542969 C 403.347656 448.542969 412.789062 439.101562 412.789062 427.375 L 412.789062 162.453125 Z M 296.671875 46.335938 "/>
<path style=" stroke:none;fill-rule:nonzero;fill:rgb(0%,0%,0%);fill-opacity:0.235294;" d="M 84.675781 419.15625 L 84.675781 427.375 C 84.675781 439.101562 94.117188 448.542969 105.84375 448.542969 L 391.621094 448.542969 C 403.347656 448.542969 412.789062 439.101562 412.789062 427.375 L 412.789062 419.15625 C 412.789062 430.882812 403.347656 440.324219 391.621094 440.324219 L 105.84375 440.324219 C 94.117188 440.324219 84.675781 430.882812 84.675781 419.15625 Z M 84.675781 419.15625 "/>
<path style=" stroke:none;fill-rule:nonzero;fill:url(#linear2);" d="M 296.363281 144.242188 L 396.914062 144.242188 L 412.789062 160.121094 L 412.789062 181.289062 L 296.363281 181.289062 Z M 296.363281 144.242188 "/>
<path style=" stroke:none;fill-rule:nonzero;fill:rgb(100%,100%,100%);fill-opacity:0.392157;" d="M 105.84375 46.335938 C 94.117188 46.335938 84.675781 55.777344 84.675781 67.507812 L 84.675781 75.445312 C 84.675781 63.71875 94.117188 54.277344 105.84375 54.277344 L 296.671875 54.277344 L 412.789062 170.390625 L 412.789062 162.453125 L 296.671875 46.335938 Z M 105.84375 46.335938 "/>
<path style=" stroke:none;fill-rule:nonzero;fill:url(#linear3);" d="M 412.789062 162.453125 L 296.671875 46.335938 L 296.671875 141.285156 C 296.671875 153.011719 306.113281 162.453125 317.839844 162.453125 Z M 412.789062 162.453125 "/>
<path style=" stroke:none;fill-rule:nonzero;fill:rgb(0%,0%,0%);fill-opacity:0.235294;" d="M 296.671875 136.304688 L 296.671875 141.285156 C 296.671875 153.011719 306.113281 162.453125 317.839844 162.453125 L 412.789062 162.453125 L 407.808594 157.472656 L 317.839844 157.472656 C 306.113281 157.472656 296.671875 148.03125 296.671875 136.304688 Z M 296.671875 136.304688 "/>
<path style=" stroke:none;fill-rule:nonzero;fill:rgb(100%,100%,100%);fill-opacity:0.392157;" d="M 296.671875 46.335938 L 296.671875 54.277344 L 404.851562 162.453125 L 412.789062 162.453125 Z M 296.671875 46.335938 "/>
<path style=" stroke:none;fill-rule:nonzero;fill:rgb(12.941177%,12.941177%,12.941177%);fill-opacity:1;" d="M 296.652344 44.839844 C 295.832031 44.851562 295.171875 45.515625 295.171875 46.335938 L 295.171875 141.285156 C 295.171875 153.816406 305.308594 163.953125 317.839844 163.953125 L 412.789062 163.953125 C 413.394531 163.953125 413.941406 163.585938 414.175781 163.027344 C 414.40625 162.464844 414.277344 161.820312 413.851562 161.390625 L 297.734375 45.277344 C 297.445312 44.988281 297.054688 44.832031 296.652344 44.839844 Z M 298.171875 49.957031 L 409.167969 160.953125 L 317.839844 160.953125 C 306.917969 160.953125 298.171875 152.207031 298.171875 141.285156 Z M 298.171875 49.957031 "/>
<path style=" stroke:none;fill-rule:nonzero;fill:rgb(12.941177%,12.941177%,12.941177%);fill-opacity:1;" d="M 105.84375 44.835938 C 93.3125 44.835938 83.175781 54.972656 83.175781 67.507812 L 83.175781 427.375 C 83.175781 439.90625 93.3125 450.042969 105.84375 450.042969 L 391.621094 450.042969 C 404.152344 450.042969 414.289062 439.90625 414.289062 427.375 L 414.289062 162.453125 C 414.289062 162.054688 414.132812 161.675781 413.851562 161.394531 L 297.734375 45.277344 C 297.453125 44.996094 297.070312 44.835938 296.671875 44.835938 Z M 105.84375 47.835938 L 296.050781 47.835938 L 411.289062 163.074219 L 411.289062 427.375 C 411.289062 438.296875 402.542969 447.042969 391.621094 447.042969 L 105.84375 447.042969 C 94.921875 447.042969 86.175781 438.296875 86.175781 427.375 L 86.175781 67.507812 C 86.175781 56.582031 94.921875 47.835938 105.84375 47.835938 Z M 105.84375 47.835938 "/>
<path style="fill-rule:nonzero;fill:url(#linear4);stroke-width:3;stroke-linecap:round;stroke-linejoin:round;stroke:rgb(12.941177%,12.941177%,12.941177%);stroke-opacity:1;stroke-miterlimit:4;" d="M 216.897256 -31.072252 C 213.542108 -30.986322 210.429124 -29.314607 208.503526 -26.56487 L 174.623949 21.832852 L 164.253846 21.832852 C 161.320532 21.832852 158.961382 24.192002 158.961382 27.125316 L 158.961382 37.710242 C 158.961382 40.63965 161.320532 42.9988 164.253846 42.9988 L 178.350156 42.9988 C 185.419793 42.9988 186.486098 41.889531 188.794471 38.483606 L 216.018434 -0.415023 L 276.66108 111.53913 C 278.590583 115.101289 282.391002 117.249522 286.445302 117.065946 C 290.495697 116.878463 294.085198 114.394326 295.682701 110.664213 L 324.683838 42.9988 L 333.585332 42.9988 C 336.518645 42.9988 338.877795 40.63965 338.877795 37.710242 L 338.877795 27.125316 C 338.877795 24.192002 336.518645 21.832852 333.585332 21.832852 L 319.172646 21.832852 C 313.212277 21.832852 309.829788 23.82485 307.986214 28.250208 L 284.847798 82.241146 L 226.470561 -25.537624 C 224.572304 -29.03729 220.873439 -31.173805 216.897256 -31.072252 Z M 216.897256 -31.072252 " transform="matrix(1.000095,0,0,1.000095,0,215.020531)"/>
</g>
</svg>

<svg xmlns="http://www.w3.org/2000/svg" width="512pt" height="512pt" viewBox="0 0 512 512"><defs><linearGradient id="a" gradientUnits="userSpaceOnUse" x1="254" y1="233.5" x2="254" y2="254.667" gradientTransform="matrix(1.0001 0 0 1.0001 10.584 215.02)"><stop offset="0" stop-opacity=".275"/><stop offset="1" stop-opacity="0"/></linearGradient><radialGradient id="b" gradientUnits="userSpaceOnUse" cx="450.909" cy="189.579" fx="450.909" fy="189.579" r="21.167" gradientTransform="matrix(0 -1.25012 -2.25021 0 791.753 1017.525)"><stop offset="0" stop-opacity=".314"/><stop offset=".222" stop-opacity=".275"/><stop offset="1" stop-opacity="0"/></radialGradient><radialGradient id="c" gradientUnits="userSpaceOnUse" cx="450.909" cy="189.579" fx="450.909" fy="189.579" r="21.167" gradientTransform="matrix(0 1.25012 2.25021 0 -294.289 -120.44)"><stop offset="0" stop-opacity=".314"/><stop offset=".222" stop-opacity=".275"/><stop offset="1" stop-opacity="0"/></radialGradient><radialGradient id="d" gradientUnits="userSpaceOnUse" cx="450.909" cy="189.579" fx="450.909" fy="189.579" r="21.167" gradientTransform="matrix(0 -1.25012 2.25021 0 -294.289 1017.525)"><stop offset="0" stop-opacity=".314"/><stop offset=".222" stop-opacity=".275"/><stop offset="1" stop-opacity="0"/></radialGradient><radialGradient id="e" gradientUnits="userSpaceOnUse" cx="450.909" cy="189.579" fx="450.909" fy="189.579" r="21.167" gradientTransform="matrix(0 1.25012 -2.25021 0 791.753 -120.44)"><stop offset="0" stop-opacity=".314"/><stop offset=".222" stop-opacity=".275"/><stop offset="1" stop-opacity="0"/></radialGradient><linearGradient id="f" gradientUnits="userSpaceOnUse" x1="940" y1="1695.118" x2="940" y2="175.118" gradientTransform="rotate(.158) scale(.26461)"><stop offset="0" stop-color="#80cbc4"/><stop offset="1" stop-color="#b2dfdb"/></linearGradient><linearGradient id="g" gradientUnits="userSpaceOnUse" x1="249.189" y1="233.5" x2="249.189" y2="254.667" gradientTransform="matrix(.4783 0 0 1.75016 240.679 -264.42)"><stop offset="0" stop-opacity=".275"/><stop offset="1" stop-opacity="0"/></linearGradient><linearGradient id="h" gradientUnits="userSpaceOnUse" x1="338.667" y1="233.5" x2="338.667" y2="-168.667" gradientTransform="matrix(1.0001 0 0 1.0001 0 215.02)"><stop offset="0" stop-color="#26a69a"/><stop offset="1" stop-color="#4db6ac"/></linearGradient><linearGradient id="i" gradientUnits="userSpaceOnUse" x1="285.75" y1="233.5" x2="285.75" y2="-168.667" gradientTransform="translate(-21.167)"><stop offset="0" stop-color="#26a69a"/><stop offset="1" stop-color="#4db6ac"/></linearGradient></defs><path d="M127.012 448.543h243.441v21.168H127.012zm0 0" fill="url(#a)"/><path d="M370.453 448.543h42.336v-21.168h-42.336zm0 0" fill="url(#b)"/><path d="M127.012 448.543H84.676v21.168h42.336zm0 0" fill="url(#c)"/><path d="M127.012 448.543H84.676v-21.168h42.336zm0 0" fill="url(#d)"/><path d="M370.453 448.543h42.336v21.168h-42.336zm0 0" fill="url(#e)"/><path d="M296.672 46.336H105.844a21.123 21.123 0 0 0-21.168 21.172v359.867a21.122 21.122 0 0 0 21.168 21.168H391.62a21.122 21.122 0 0 0 21.168-21.168V162.453zm0 0" fill="url(#f)"/><path d="M84.676 419.156v8.219a21.122 21.122 0 0 0 21.168 21.168H391.62a21.122 21.122 0 0 0 21.168-21.168v-8.219a21.122 21.122 0 0 1-21.168 21.168H105.844a21.122 21.122 0 0 1-21.168-21.168zm0 0" fill-opacity=".235"/><path d="M296.363 144.242h100.551l15.875 15.88v21.167H296.363zm0 0" fill="url(#g)"/><path d="M105.844 46.336a21.123 21.123 0 0 0-21.168 21.172v7.937a21.122 21.122 0 0 1 21.168-21.168h190.828l116.117 116.114v-7.938L296.672 46.336zm0 0" fill="#fff" fill-opacity=".392"/><path d="M412.79 162.453L296.671 46.336v94.95a21.122 21.122 0 0 0 21.168 21.167zm0 0" fill="url(#h)"/><path d="M296.672 136.305v4.98a21.122 21.122 0 0 0 21.168 21.168h94.95l-4.981-4.98h-89.97a21.122 21.122 0 0 1-21.167-21.168zm0 0" fill-opacity=".235"/><path d="M296.672 46.336v7.941l108.18 108.176h7.937zm0 0" fill="#fff" fill-opacity=".392"/><path d="M296.652 44.84c-.82.012-1.48.676-1.48 1.496v94.95c0 12.53 10.137 22.667 22.668 22.667h94.95c.605 0 1.151-.367 1.386-.926a1.512 1.512 0 0 0-.324-1.636L297.734 45.277c-.289-.289-.68-.445-1.082-.437zm1.52 5.117l110.996 110.996H317.84a19.592 19.592 0 0 1-19.668-19.668zm0 0" fill="#212121"/><path d="M105.844 44.836c-12.531 0-22.668 10.137-22.668 22.672v359.867c0 12.531 10.136 22.668 22.668 22.668H391.62c12.531 0 22.668-10.137 22.668-22.668V162.453c0-.398-.156-.777-.437-1.058L297.734 45.277a1.505 1.505 0 0 0-1.062-.441zm0 3H296.05l115.238 115.238v264.301a19.592 19.592 0 0 1-19.668 19.668H105.844a19.592 19.592 0 0 1-19.668-19.668V67.508a19.593 19.593 0 0 1 19.668-19.672zm0 0" fill="#212121"/><path d="M216.897-31.072a10.575 10.575 0 0 0-8.393 4.507l-33.88 48.398h-10.37a5.28 5.28 0 0 0-5.293 5.292V37.71c0 2.93 2.36 5.289 5.293 5.289h14.096c7.07 0 8.136-1.11 10.444-4.515L216.018-.415l60.643 111.954a10.582 10.582 0 0 0 9.784 5.527 10.58 10.58 0 0 0 9.238-6.402l29-67.665h8.902a5.278 5.278 0 0 0 5.293-5.289V27.125a5.28 5.28 0 0 0-5.293-5.292h-14.412c-5.96 0-9.343 1.992-11.187 6.417l-23.138 53.991L226.47-25.538a10.583 10.583 0 0 0-9.574-5.534zm0 0" transform="matrix(1.0001 0 0 1.0001 0 215.02)" fill="url(#i)" stroke-width="3" stroke-linecap="round" stroke-linejoin="round" stroke="#212121"/></svg>
